X:1
T:Title
%%score { ( 1 3 ) | ( 2 4 ) }
L:1/8
Q:1/4=100
M:4/4
K:Ab
V:1 treble nm="Grand Piano"
V:3 treble 
V:2 bass 
V:4 bass 
V:1
 E2 EF E2 E2 | A2 AB A2 G2 | [EA]2 [EG]2 F2 E2 | z4 E4 | E2 F2 F2 E2 | [EA]2 [Ec]2 c2 B2 | %6
w: A.~J.~Holden * * * *||||||
 z4 A2 z2 | z2 [=DB]2 z4 | E2 F2 G2 A2 | [GB]2 [_G=A]2 [=GB]4 | G2 A2 B2 c2 | d2 d2 d2- [Ed]2 | %12
w: ||||||
 c2 c2 c2 z E | z4 B4 | A2 [_Ge]2 [Fd]2 c2 | B2 Bc [CA]4 |] %16
w: ||||
V:2
 [A,C]2 [A,C]2 [G,B,]2 [G,B,]2 | [F,CE]2 [F,B,=D]2 [E,B,E]4 | [C,A,]2 [C,A,]2 [D,A,D]2 [E,A,C]2 | %3
 [F,A,C]2 [F,A,B,]2 A,2 z2 | [A,C]2 [E,A,C]2 [A,C]2 [E,A,C]2 | z4 A,2 z2 | %6
 [G,B,E]2 [G,B,E]2 .[F,B,E]2 E,2 | A,,2 B,,2 [E,G,]4 | [E,G,]2 [E,A,E]2 [E,B,E]2 [E,C]2 | %9
 [E,D]2 [E,C]2 [E,B,]4 | [DE]2 [CE]2 [B,DE]2 [A,CE]2 | [G,B,E]2[K:bass] [F,A,F]2 [E,B,]4 | %12
 [A,CE]2 [G,B,=E]2 [F,=A,F]2[K:treble] [A,C]2 | [B,=D]2 [A,DF]2 F2 z2 | %14
 [A,CE]2 [C,A,]2 [D,A,]2 [E,A,E]2 | [F,A,=D]2 [E,G,_D]2 [A,,A,]4 |] %16
V:3
 x8 | x8 | x8 | E2 =D2 z2 G,2 | x8 | x8 | e2 B2 z =D [B,EG]2 | [CEF]2 B,A, E4 | x8 | x8 | x8 | %11
 z4 G2 z2 | z4 z2 F2 | B2 B2 z2 E2 | x8 | x8 |] %16
V:4
 x8 | x8 | x8 | z4 [E,B,]4 | x8 | [C,A,]2 [A,,A,]2 [F,=D]2- [F,B,D]2 | x8 | x8 | x8 | x8 | x8 | %11
 x2[K:bass] x6 | x6[K:treble] x2 | z4 [G,_D]4 | x8 | x8 |] %16

